Origami/24x24/apps/reddit.svg

<svg width="24" height="24" version="1.1" viewBox="0 0 6.35 6.35" xmlns="http://www.w3.org/2000/svg">
 <g transform="translate(0,-290.64999)">
  <circle cx="3.175" cy="293.957" r="2.646" style="opacity:.2"/>
  <circle cx="3.175" cy="293.825" r="2.646" style="fill:#ff6a33"/>
  <path d="m3.1750001 291.17916a2.6458333 2.6458333 0 0 0 -2.6458334 2.64583 2.6458333 2.6458333 0 0 0 0.002842 0.077 2.6458333 2.6458333 0 0 1 2.6429912 -2.59054 2.6458333 2.6458333 0 0 1 2.6429912 2.56883 2.6458333 2.6458333 0 0 0 0.00284 -0.0553 2.6458333 2.6458333 0 0 0 -2.6458334 -2.64583z" style="fill:#ffffff;opacity:.2"/>
  <path d="m3.3000569 292.36926c-0.064066 4e-3 -0.1163455 0.0526-0.1240235 0.11628l-0.1178221 0.94671a1.5874999 1.0583332 0 0 0 -0.9591146 0.2775 0.396875 0.396875 0 0 0 -0.3793051 -0.28163 0.396875 0.396875 0 0 0 -0.3968749 0.39687 0.396875 0.396875 0 0 0 0.3198771 0.38964 1.5874999 1.0583332 0 0 0 -0.055294 0.27182 1.5874999 1.0583332 0 0 0 1.5875 1.05833 1.5874999 1.0583332 0 0 0 1.5874999 -1.05833 1.5874999 1.0583332 0 0 0 -0.05426 -0.27285 0.396875 0.396875 0 0 0 0.3188436 -0.38861 0.396875 0.396875 0 0 0 -0.396875 -0.39687 0.396875 0.396875 0 0 0 -0.3798218 0.28163 1.5874999 1.0583332 0 0 0 -0.9260417 -0.27543l0.097152-0.7829 0.5663737 0.0811c0.040128 0.10042 0.1373254 0.16631 0.245463 0.1664 0.146128 0 0.264587-0.11845 0.2645833-0.26458-1.8e-6 -0.14612-0.1184592-0.26459-0.2645833-0.26459-0.081112 1.4e-4 -0.1576795 0.0375-0.2077392 0.10129l-0.6996991-0.0992c-0.0087-2e-3 -0.017525-2e-3 -0.026355-2e-3zm-0.6542236 1.58802a0.26458332 0.26458332 0 0 1 0.2645833 0.26459 0.26458332 0.26458332 0 0 1 -0.2645833 0.26458 0.26458332 0.26458332 0 0 1 -0.2645833 -0.26458 0.26458332 0.26458332 0 0 1 0.2645833 -0.26459zm1.0583333 0a0.26458332 0.26458332 0 0 1 0.2645834 0.26459 0.26458332 0.26458332 0 0 1 -0.2645834 0.26458 0.26458332 0.26458332 0 0 1 -0.2645833 -0.26458 0.26458332 0.26458332 0 0 1 0.2645833 -0.26459zm0.1297078 0.78962a0.13276655 0.13276655 0 0 1 0.1214397 0.19585s-0.056486 0.10174-0.1782836 0.18294c-0.121798 0.0812-0.3153984 0.15399-0.6020305 0.15399-0.2866322 0-0.481266-0.0727-0.603064-0.15399-0.1217979-0.0812-0.1762166-0.18294-0.1762166-0.18294a0.1323049 0.1323049 0 0 1 0.1064534 -0.19327 0.1323049 0.1323049 0 0 1 0.013436 -5.2e-4 0.1323049 0.1323049 0 0 1 0.116272 0.0749s0.010177 0.0311 0.086816 0.0822c0.07664 0.0511 0.2132512 0.11007 0.455786 0.11007 0.2425346 0 0.3796639-0.0589 0.4563028-0.11007 0.07664-0.0511 0.086816-0.0822 0.086816-0.0822a0.13276655 0.13276655 0 0 1 0.1157552 -0.0765z" style="opacity:.2"/>
  <path transform="matrix(.26458333 0 0 .26458333 0 290.64999)" d="m12.472656 5.9980469c-0.242139 0.0151181-0.439731 0.1988106-0.46875 0.4394531l-0.445312 3.578125a5.9999997 3.9999996 0 0 0 -3.6250002 1.048828 1.5 1.5 0 0 0 -1.4335938 -1.064453 1.5 1.5 0 0 0 -1.5 1.5 1.5 1.5 0 0 0 1.2089844 1.472656 5.9999997 3.9999996 0 0 0 -0.2089844 1.027344 5.9999997 3.9999996 0 0 0 6 4 5.9999997 3.9999996 0 0 0 6 -4 5.9999997 3.9999996 0 0 0 -0.205078 -1.03125 1.5 1.5 0 0 0 1.205078 -1.46875 1.5 1.5 0 0 0 -1.5 -1.5 1.5 1.5 0 0 0 -1.435547 1.064453 5.9999997 3.9999996 0 0 0 -3.5 -1.041015l0.367188-2.9589849 2.140625 0.3066407c0.151665 0.3795401 0.519025 0.628566 0.927734 0.6289062 0.552295 0 1.000014-0.4476976 1-1-7e-6 -0.5522646-0.44772-1-1-1-0.306565 5.291e-4 -0.595954 0.1417164-0.785156 0.3828125l-2.644532-0.375c-0.032881-0.0075591-0.066236-0.0078125-0.099609-0.0078125l0.001953-0.0019531zm-2.472656 6.0019531a0.99999997 0.99999997 0 0 1 1 1 0.99999997 0.99999997 0 0 1 -1 1 0.99999997 0.99999997 0 0 1 -1 -1 0.99999997 0.99999997 0 0 1 1 -1zm4 0a0.99999997 0.99999997 0 0 1 1 1 0.99999997 0.99999997 0 0 1 -1 1 0.99999997 0.99999997 0 0 1 -1 -1 0.99999997 0.99999997 0 0 1 1 -1zm0.490234 2.984375a0.50179485 0.50179485 0 0 1 0.458985 0.740234s-0.213489 0.384509-0.673828 0.691407c-0.460339 0.306897-1.192057 0.582031-2.275391 0.582031s-1.818958-0.274945-2.2792969-0.582031c-0.4603385-0.306898-0.6660156-0.691407-0.6660156-0.691407a0.50005003 0.50005003 0 0 1 0.4023437 -0.730468 0.50005003 0.50005003 0 0 1 0.0507813 -0.001953 0.50005003 0.50005003 0 0 1 0.4394531 0.283203s0.038465 0.117413 0.3281254 0.310547c0.289663 0.193131 0.805989 0.416015 1.722656 0.416015 0.916666 0 1.43495-0.22277 1.724609-0.416015 0.289663-0.193134 0.328125-0.310547 0.328125-0.310547a0.50179485 0.50179485 0 0 1 0.4375 -0.289063l0.001953-0.001953z" style="fill:#ffffff"/>
 </g>
</svg>

<svg xmlns="http://www.w3.org/2000/svg" width="24" height="24" version="1.1" viewBox="0 0 6.35 6.35">
 <g transform="translate(0,-290.64999)">
  <circle style="opacity:0.2" cx="3.175" cy="293.957" r="2.646"/>
  <circle style="fill:#ff6a33" cx="3.175" cy="293.825" r="2.646"/>
  <path style="opacity:0.2;fill:#ffffff" d="m 3.1750001,291.17916 a 2.6458333,2.6458333 0 0 0 -2.64583344,2.64583 2.6458333,2.6458333 0 0 0 0.002842,0.077 2.6458333,2.6458333 0 0 1 2.64299124,-2.59054 2.6458333,2.6458333 0 0 1 2.6429912,2.56883 2.6458333,2.6458333 0 0 0 0.00284,-0.0553 2.6458333,2.6458333 0 0 0 -2.6458334,-2.64583 z"/>
  <path style="opacity:0.2" d="m 3.3000569,292.36926 c -0.064066,0.004 -0.1163455,0.0526 -0.1240235,0.11628 l -0.1178221,0.94671 a 1.5874999,1.0583332 0 0 0 -0.9591146,0.2775 0.396875,0.396875 0 0 0 -0.3793051,-0.28163 0.396875,0.396875 0 0 0 -0.3968749,0.39687 0.396875,0.396875 0 0 0 0.3198771,0.38964 1.5874999,1.0583332 0 0 0 -0.055294,0.27182 1.5874999,1.0583332 0 0 0 1.5875,1.05833 1.5874999,1.0583332 0 0 0 1.5874999,-1.05833 1.5874999,1.0583332 0 0 0 -0.05426,-0.27285 0.396875,0.396875 0 0 0 0.3188436,-0.38861 0.396875,0.396875 0 0 0 -0.396875,-0.39687 0.396875,0.396875 0 0 0 -0.3798218,0.28163 1.5874999,1.0583332 0 0 0 -0.9260417,-0.27543 l 0.097152,-0.7829 0.5663737,0.0811 c 0.040128,0.10042 0.1373254,0.16631 0.245463,0.1664 0.146128,0 0.264587,-0.11845 0.2645833,-0.26458 -1.8e-6,-0.14612 -0.1184592,-0.26459 -0.2645833,-0.26459 -0.081112,1.4e-4 -0.1576795,0.0375 -0.2077392,0.10129 l -0.6996991,-0.0992 c -0.0087,-0.002 -0.017525,-0.002 -0.026355,-0.002 z m -0.6542236,1.58802 a 0.26458332,0.26458332 0 0 1 0.2645833,0.26459 0.26458332,0.26458332 0 0 1 -0.2645833,0.26458 0.26458332,0.26458332 0 0 1 -0.2645833,-0.26458 0.26458332,0.26458332 0 0 1 0.2645833,-0.26459 z m 1.0583333,0 a 0.26458332,0.26458332 0 0 1 0.2645834,0.26459 0.26458332,0.26458332 0 0 1 -0.2645834,0.26458 0.26458332,0.26458332 0 0 1 -0.2645833,-0.26458 0.26458332,0.26458332 0 0 1 0.2645833,-0.26459 z m 0.1297078,0.78962 a 0.13276655,0.13276655 0 0 1 0.1214397,0.19585 c 0,0 -0.056486,0.10174 -0.1782836,0.18294 -0.121798,0.0812 -0.3153984,0.15399 -0.6020305,0.15399 -0.2866322,0 -0.481266,-0.0727 -0.603064,-0.15399 -0.1217979,-0.0812 -0.1762166,-0.18294 -0.1762166,-0.18294 a 0.1323049,0.1323049 0 0 1 0.1064534,-0.19327 0.1323049,0.1323049 0 0 1 0.013436,-5.2e-4 0.1323049,0.1323049 0 0 1 0.116272,0.0749 c 0,0 0.010177,0.0311 0.086816,0.0822 0.07664,0.0511 0.2132512,0.11007 0.455786,0.11007 0.2425346,0 0.3796639,-0.0589 0.4563028,-0.11007 0.07664,-0.0511 0.086816,-0.0822 0.086816,-0.0822 a 0.13276655,0.13276655 0 0 1 0.1157552,-0.0765 z"/>
  <path style="fill:#ffffff" d="M 12.472656 5.9980469 C 12.230517 6.013165 12.032925 6.1968575 12.003906 6.4375 L 11.558594 10.015625 A 5.9999997 3.9999996 0 0 0 7.9335938 11.064453 A 1.5 1.5 0 0 0 6.5 10 A 1.5 1.5 0 0 0 5 11.5 A 1.5 1.5 0 0 0 6.2089844 12.972656 A 5.9999997 3.9999996 0 0 0 6 14 A 5.9999997 3.9999996 0 0 0 12 18 A 5.9999997 3.9999996 0 0 0 18 14 A 5.9999997 3.9999996 0 0 0 17.794922 12.96875 A 1.5 1.5 0 0 0 19 11.5 A 1.5 1.5 0 0 0 17.5 10 A 1.5 1.5 0 0 0 16.064453 11.064453 A 5.9999997 3.9999996 0 0 0 12.564453 10.023438 L 12.931641 7.0644531 L 15.072266 7.3710938 C 15.223931 7.7506339 15.591291 7.9996598 16 8 C 16.552295 8 17.000014 7.5523024 17 7 C 16.999993 6.4477354 16.55228 6 16 6 C 15.693435 6.0005291 15.404046 6.1417164 15.214844 6.3828125 L 12.570312 6.0078125 C 12.537431 6.0002534 12.504076 6 12.470703 6 L 12.472656 5.9980469 z M 10 12 A 0.99999997 0.99999997 0 0 1 11 13 A 0.99999997 0.99999997 0 0 1 10 14 A 0.99999997 0.99999997 0 0 1 9 13 A 0.99999997 0.99999997 0 0 1 10 12 z M 14 12 A 0.99999997 0.99999997 0 0 1 15 13 A 0.99999997 0.99999997 0 0 1 14 14 A 0.99999997 0.99999997 0 0 1 13 13 A 0.99999997 0.99999997 0 0 1 14 12 z M 14.490234 14.984375 A 0.50179485 0.50179485 0 0 1 14.949219 15.724609 C 14.949219 15.724609 14.73573 16.109118 14.275391 16.416016 C 13.815052 16.722913 13.083334 16.998047 12 16.998047 C 10.916666 16.998047 10.181042 16.723102 9.7207031 16.416016 C 9.2603646 16.109118 9.0546875 15.724609 9.0546875 15.724609 A 0.50005003 0.50005003 0 0 1 9.4570312 14.994141 A 0.50005003 0.50005003 0 0 1 9.5078125 14.992188 A 0.50005003 0.50005003 0 0 1 9.9472656 15.275391 C 9.9472656 15.275391 9.9857306 15.392804 10.275391 15.585938 C 10.565054 15.779069 11.08138 16.001953 11.998047 16.001953 C 12.914713 16.001953 13.432997 15.779183 13.722656 15.585938 C 14.012319 15.392804 14.050781 15.275391 14.050781 15.275391 A 0.50179485 0.50179485 0 0 1 14.488281 14.986328 L 14.490234 14.984375 z" transform="matrix(0.26458333,0,0,0.26458333,0,290.64999)"/>
 </g>
</svg>
